X: 3
T:Rocking the Cradle
M:6/8
L:1/8
S:Sergt. James O'Neill
R:Air
K:D
"Andante"D/2E/2|FFF GGA/2G/2|FFD EDD/2E/2|FFF GAG|FED D2:||
A/2B/2|=c>dc B>^cd|AA/2B/2A/2G/2 FDD|=c>dc BAF|A>B^c d2 d|
d>ef d>ef|AA/2B/2A/2G/2 FDD/2E/2|F/2G/2F/2E/2D/2F/2 EAG|FDD D2||

